src/scalable/apps/disk-check.svg

<?xml version="1.0" encoding="UTF-8" standalone="no"?>
<svg
   xmlns:dc="http://purl.org/dc/elements/1.1/"
   xmlns:cc="http://creativecommons.org/ns#"
   xmlns:rdf="http://www.w3.org/1999/02/22-rdf-syntax-ns#"
   xmlns:svg="http://www.w3.org/2000/svg"
   xmlns="http://www.w3.org/2000/svg"
   xmlns:sodipodi="http://sodipodi.sourceforge.net/DTD/sodipodi-0.dtd"
   xmlns:inkscape="http://www.inkscape.org/namespaces/inkscape"
   width="64"
   height="64"
   version="1"
   id="svg10"
   sodipodi:docname="gnome-dev-disc-cdrw.svg"
   inkscape:version="0.92.2 2405546, 2018-03-11">
  <metadata
     id="metadata16">
    <rdf:RDF>
      <cc:Work
         rdf:about="">
        <dc:format>image/svg+xml</dc:format>
        <dc:type
           rdf:resource="http://purl.org/dc/dcmitype/StillImage" />
      </cc:Work>
    </rdf:RDF>
  </metadata>
  <defs
     id="defs14" />
  <sodipodi:namedview
     pagecolor="#ffffff"
     bordercolor="#666666"
     borderopacity="1"
     objecttolerance="10"
     gridtolerance="10"
     guidetolerance="10"
     inkscape:pageopacity="0"
     inkscape:pageshadow="2"
     inkscape:window-width="1920"
     inkscape:window-height="1022"
     id="namedview12"
     showgrid="true"
     inkscape:snap-bbox="true"
     inkscape:bbox-nodes="true"
     inkscape:zoom="3.6875"
     inkscape:cx="-47.37746"
     inkscape:cy="21.735082"
     inkscape:window-x="0"
     inkscape:window-y="28"
     inkscape:window-maximized="1"
     inkscape:current-layer="svg10">
    <inkscape:grid
       type="xygrid"
       id="grid825" />
  </sodipodi:namedview>
  <path
     style="fill:#fa4d6f;stroke-width:0.9285714;fill-opacity:1"
     d="M 32,6 A 26,26 0 0 0 6,32 26,26 0 0 0 32,58 26,26 0 0 0 58,32 26,26 0 0 0 32,6 Z m 0,14.857143 A 11.142857,11.142857 0 0 1 43.142857,32 11.142857,11.142857 0 0 1 32,43.142857 11.142857,11.142857 0 0 1 20.857143,32 11.142857,11.142857 0 0 1 32,20.857143 Z"
     id="path6"
     inkscape:connector-curvature="0" />
  <path
     inkscape:connector-curvature="0"
     id="path823"
     d="M 32,9 A 23,23 0 0 0 9,32 23,23 0 0 0 32,55 23,23 0 0 0 55,32 23,23 0 0 0 32,9 Z m 0,13.142858 A 9.8571429,9.8571429 0 0 1 41.857142,32 9.8571429,9.8571429 0 0 1 32,41.857142 9.8571429,9.8571429 0 0 1 22.142858,32 9.8571429,9.8571429 0 0 1 32,22.142858 Z"
     style="opacity:0.15;fill:#ffffff;fill-opacity:1;stroke-width:0.82142854" />
  <path
     style="fill:#000000;opacity:0.35"
     d="M 32 17 A 15 15 0 0 0 17 32 A 15 15 0 0 0 32 47 A 15 15 0 0 0 47 32 A 15 15 0 0 0 32 17 z M 32 26 A 6 6 0 0 1 38 32 A 6 6 0 0 1 32 38 A 6 6 0 0 1 26 32 A 6 6 0 0 1 32 26 z"
     id="path4" />
</svg>

<svg xmlns="http://www.w3.org/2000/svg" width="64" height="64" version="1"><path d="M32 6A26 26 0 0 0 6 32a26 26 0 0 0 26 26 26 26 0 0 0 26-26A26 26 0 0 0 32 6zm0 14.857A11.143 11.143 0 0 1 43.143 32 11.143 11.143 0 0 1 32 43.143 11.143 11.143 0 0 1 20.857 32 11.143 11.143 0 0 1 32 20.857z" fill="#fa4d6f"/><path d="M32 9A23 23 0 0 0 9 32a23 23 0 0 0 23 23 23 23 0 0 0 23-23A23 23 0 0 0 32 9zm0 13.143A9.857 9.857 0 0 1 41.857 32 9.857 9.857 0 0 1 32 41.857 9.857 9.857 0 0 1 22.143 32 9.857 9.857 0 0 1 32 22.143z" opacity=".15" fill="#fff"/><path d="M32 17a15 15 0 0 0-15 15 15 15 0 0 0 15 15 15 15 0 0 0 15-15 15 15 0 0 0-15-15zm0 9a6 6 0 0 1 6 6 6 6 0 0 1-6 6 6 6 0 0 1-6-6 6 6 0 0 1 6-6z" opacity=".35"/></svg>
